X: 220
T: Dan Breen's / The Humours of Ballinahinch
R:reel
D:Catherine McEvoy & John McEvoy: The Kilmore Fancy
D:Altan: The Red Crow
D:Jack Coen: Warming Up
Z:Julie Ross
M:C|
K:Ador
"Dan Breen's"
egdB A2AG|EAAG ABcd|egdB ABAG|EGGF G2Bd|
e2dB A2AG|EAAG ABcd|(3efg dB ABAG|EGGF G2Bd||
e2ge edBd|eAcA eAcA|e2ge edBd|d2ef g2fg|
e2ge edBd|eaag eaag|e3g edBd|d2ef g2fg||
K:D
"The Humours of Ballinahinch"
a3g |: f2df edBA | (3Bcd ef g2ag | {fg}f2df edBc | dBAF EFDe |
f2df edBA | (3Bcd ef g2ag | f~d3 edBc | dBAF EFD2 ||
faaf d2de | faaf ~g3e | faaa b2af | gfed {Bc}B2Ag |
faaf d2de | faaf g3a | aggf gfed | (3Bcd ef gbag :||

%%sep 1 1 500

